templates/main/source/images/alfa.svg

<?xml version="1.0" encoding="utf-8"?>
<svg width="194px" height="40px" viewBox="0 0 194 40" version="1.1" xmlns:xlink="http://www.w3.org/1999/xlink" xmlns="http://www.w3.org/2000/svg">
  <desc>Created with Lunacy</desc>
  <defs>
    <path d="M0 39.5306L193.006 39.5306L193.006 0L0 0L0 39.5306Z" transform="translate(0 0.20450331)" id="path_1" />
    <clipPath id="mask_1">
      <use xlink:href="#path_1" />
    </clipPath>
  </defs>
  <g id="Group-19">
    <path d="M11.352 0L4.76583 7.37987L4.76583 0L0 0L0 18.6328L4.76583 18.6328L4.76583 10.7891L11.8151 18.6328L17.9709 18.6328L17.9709 18.6326L9.30013 8.8694L17.342 0L11.352 0Z" transform="translate(175.03516 7.864258)" id="Fill-1" fill="#EF3124" stroke="none" />
    <path d="M11.3521 6.94993L4.76636 6.94993L4.76636 0L0 0L0 18.6326L4.76636 18.6326L4.76636 11.2853L11.3521 11.2853L11.3521 18.6326L16.1176 18.6326L16.1176 0L11.3521 0L11.3521 6.94993Z" transform="translate(155.28125 7.864258)" id="Fill-2" fill="#EF3124" stroke="none" />
    <g id="Group-18">
      <path d="M2.51497 10.0938C2.40106 13.5679 1.95258 14.2638 0 14.2638L0 18.6323L0.727947 18.6323C5.59894 18.6323 6.77033 16.1168 6.94993 10.5242L7.14834 4.33536L11.7155 4.33536L11.7155 18.6323L16.4813 18.6323L16.4813 0L2.84609 0L2.51497 10.0938Z" transform="translate(25.781404 7.8645034)" id="Fill-3" fill="#EF3124" stroke="none" />
      <path d="M4.76556 5.65934L8.20742 5.65934C12.7417 5.65934 15.3229 7.97616 15.3229 12.0797C15.3229 15.257 13.4697 18.6326 8.27391 18.6326L0 18.6326L0 0L4.76556 0L4.76556 5.65934ZM4.76556 14.529L7.84344 14.529C9.53139 14.529 10.4911 13.7677 10.4911 12.0797C10.4911 10.5245 9.49828 9.79629 7.84344 9.79629L4.76556 9.79629L4.76556 14.529Z" transform="translate(45.90048 7.864159)" id="Fill-5" fill="#EF3124" fill-rule="evenodd" stroke="none" />
      <path d="M13.9001 0L13.9001 6.91709C19.3608 7.34728 23.0344 11.2196 23.0344 16.6472C23.0344 22.0747 19.3608 25.9799 13.9001 26.4101L13.9001 33.427L9.13457 33.427L9.13457 26.4101C3.67391 25.947 0 22.0747 0 16.6472C0 11.2527 3.67391 7.3804 9.13457 6.91709L9.13457 0L13.9001 0ZM9.13457 21.9094C6.48689 21.5452 4.83205 19.5595 4.83205 16.6472C4.83205 13.7348 6.48689 11.7494 9.13457 11.3852L9.13457 21.9094ZM13.9001 21.9094L13.9001 11.3852C16.5478 11.7494 18.2024 13.7348 18.2024 16.6472C18.2024 19.5595 16.5478 21.5452 13.9001 21.9094Z" transform="translate(62.84514 0.5168742)" id="Fill-7" fill="#EF3124" fill-rule="evenodd" stroke="none" />
      <path d="M16.2498 7.44689L16.2498 13.7017C16.2498 14.7277 16.5807 15.1248 17.4411 15.1248L17.4411 19.427L15.7862 19.427C13.9664 19.427 12.5764 18.7319 11.9475 17.4744C11.2424 18.5155 9.62729 19.8906 6.71868 19.8906C2.75152 19.8906 0 17.2429 0 13.3706C0 9.66411 2.5155 7.44689 6.75179 7.44689L11.4845 7.44689C11.4845 5.19629 10.293 4.33589 8.43973 4.33589C6.18914 4.33589 5.46093 5.52715 5.29563 6.22225L0.463576 6.22225C0.695364 3.04503 3.37616 0 8.43973 0C13.3377 0 16.2498 2.87974 16.2498 7.44689ZM7.97616 15.853C9.96212 15.853 11.4845 14.6283 11.4845 12.4771L11.4845 11.2527L7.67841 11.2527C6.38755 11.2527 4.89854 11.5505 4.89854 13.3706C4.89854 15.2241 6.25536 15.853 7.97616 15.853Z" transform="translate(87.50117 7.069828)" id="Fill-9" fill="#EF3124" fill-rule="evenodd" stroke="none" />
      <path d="M4.99762 9.99444L10.3258 9.99444C16.0509 9.99444 19.3274 12.9738 19.3274 17.9044C19.3274 23.1335 16.0509 25.9796 10.3258 25.9796L0 25.9796L0 0L17.3417 0L17.3417 4.73245L4.99762 4.73245L4.99762 9.99444ZM4.99762 21.2803L10.094 21.2803C12.7417 21.2803 14.2307 20.1219 14.2307 17.9044C14.2307 15.7534 12.7417 14.5287 10.094 14.5287L4.99762 14.5287L4.99762 21.2803Z" transform="translate(113.84532 0.5171391)" id="Fill-11" fill="#EF3124" fill-rule="evenodd" stroke="none" />
      <path d="M16.2498 7.44689L16.2498 13.7017C16.2498 14.7277 16.5807 15.1248 17.4413 15.1248L17.4413 19.427L15.7865 19.427C13.9661 19.427 12.5764 18.7319 11.9475 17.4744C11.2424 18.5155 9.62728 19.8906 6.71868 19.8906C2.75152 19.8906 0 17.2429 0 13.3706C0 9.66411 2.5155 7.44689 6.75179 7.44689L11.4845 7.44689C11.4845 5.19629 10.293 4.33589 8.43973 4.33589C6.18914 4.33589 5.46093 5.52715 5.29563 6.22225L0.463576 6.22225C0.695364 3.04503 3.37616 0 8.43973 0C13.3375 0 16.2498 2.87974 16.2498 7.44689ZM7.97642 15.853C9.96212 15.853 11.4845 14.6283 11.4845 12.4771L11.4845 11.2527L7.67841 11.2527C6.38781 11.2527 4.89854 11.5505 4.89854 13.3706C4.89854 15.2241 6.25536 15.853 7.97642 15.853Z" transform="translate(135.15843 7.069828)" id="Fill-13" fill="#EF3124" fill-rule="evenodd" stroke="none" />
      <path d="M0 39.5306L193.006 39.5306L193.006 0L0 0L0 39.5306Z" transform="translate(0 0.20450331)" id="Clip-16" fill="none" stroke="none" />
      <g clip-path="url(#mask_1)">
        <path d="M0 5.29536L25.4834 5.29536L25.4834 0L0 0L0 5.29536Z" transform="translate(0 34.439735)" id="Fill-15" fill="#EF3124" stroke="none" />
        <path d="M12.4106 0C15.2803 0 16.1176 1.71152 16.8442 3.87841L24.3581 26.2922L18.7979 26.2922L17.1102 20.964L7.04927 20.964L5.22914 26.2922L0 26.2922L7.88503 3.87841C8.6498 1.70464 9.54119 0 12.4106 0ZM12.146 5.83947L8.57166 16.463L15.654 16.463L12.2781 5.83947L12.146 5.83947Z" transform="translate(0.52950996 0.20460927)" id="Fill-17" fill="#EF3124" fill-rule="evenodd" stroke="none" />
      </g>
    </g>
  </g>
</svg>

<svg width="194" height="40" viewBox="0 0 194 40" xmlns:xlink="http://www.w3.org/1999/xlink" xmlns="http://www.w3.org/2000/svg"><defs><clipPath id="mask_1"><use xlink:href="#path_1"/></clipPath><path d="M0 39.53h193.006V0H0v39.53z" transform="translate(0 .205)" id="path_1"/></defs><g id="Group-19" stroke="none"><path d="M11.352 0L4.766 7.38V0H0v18.633h4.766v-7.844l7.05 7.844h6.155L9.3 8.869 17.341 0h-5.99z" transform="translate(175.035 7.864)" id="Fill-1" fill="#EF3124"/><path d="M11.352 6.95H4.766V0H0v18.633h4.766v-7.348h6.586v7.348h4.766V0h-4.766v6.95z" transform="translate(155.281 7.864)" id="Fill-2" fill="#EF3124"/><g id="Group-18"><path d="M2.515 10.094c-.114 3.474-.562 4.17-2.515 4.17v4.368h.728c4.87 0 6.042-2.515 6.222-8.108l.198-6.189h4.568v14.297h4.765V0H2.846l-.331 10.094z" transform="translate(25.781 7.865)" id="Fill-3" fill="#EF3124"/><path d="M4.766 5.66h3.441c4.535 0 7.116 2.316 7.116 6.42 0 3.177-1.853 6.553-7.05 6.553H0V0h4.766v5.66zm0 8.869h3.077c1.688 0 2.648-.761 2.648-2.45 0-1.555-.993-2.283-2.648-2.283H4.766v4.733z" transform="translate(45.9 7.864)" id="Fill-5" fill="#EF3124" fill-rule="evenodd"/><path d="M13.9 0v6.917c5.46.43 9.134 4.303 9.134 9.73 0 5.428-3.673 9.333-9.134 9.763v7.017H9.135V26.41C3.674 25.947 0 22.075 0 16.647c0-5.394 3.674-9.267 9.135-9.73V0H13.9zM9.135 21.91c-2.648-.365-4.303-2.35-4.303-5.263 0-2.912 1.655-4.898 4.303-5.262V21.91zm4.765 0V11.384c2.648.364 4.302 2.35 4.302 5.262 0 2.913-1.654 4.898-4.302 5.262z" transform="translate(62.845 .517)" id="Fill-7" fill="#EF3124" fill-rule="evenodd"/><path d="M16.25 7.447v6.255c0 1.026.33 1.423 1.191 1.423v4.302h-1.655c-1.82 0-3.21-.695-3.838-1.953-.706 1.041-2.32 2.417-5.23 2.417C2.753 19.89 0 17.243 0 13.37c0-3.707 2.515-5.924 6.752-5.924h4.733c0-2.25-1.192-3.111-3.045-3.111-2.25 0-2.98 1.191-3.144 1.886H.464C.695 3.045 3.376 0 8.44 0c4.898 0 7.81 2.88 7.81 7.447zm-8.274 8.406c1.986 0 3.509-1.225 3.509-3.376v-1.224H7.678c-1.29 0-2.78.297-2.78 2.118 0 1.853 1.357 2.482 3.078 2.482z" transform="translate(87.501 7.07)" id="Fill-9" fill="#EF3124" fill-rule="evenodd"/><path d="M4.998 9.994h5.328c5.725 0 9.001 2.98 9.001 7.91 0 5.23-3.276 8.076-9.001 8.076H0V0h17.342v4.732H4.998v5.262zm0 11.286h5.096c2.648 0 4.137-1.158 4.137-3.376 0-2.15-1.49-3.375-4.137-3.375H4.998v6.751z" transform="translate(113.845 .517)" id="Fill-11" fill="#EF3124" fill-rule="evenodd"/><path d="M16.25 7.447v6.255c0 1.026.33 1.423 1.191 1.423v4.302h-1.654c-1.82 0-3.21-.695-3.84-1.953-.705 1.041-2.32 2.417-5.228 2.417C2.752 19.89 0 17.243 0 13.37c0-3.707 2.515-5.924 6.752-5.924h4.733c0-2.25-1.192-3.111-3.045-3.111-2.25 0-2.98 1.191-3.144 1.886H.464C.695 3.045 3.376 0 8.44 0c4.898 0 7.81 2.88 7.81 7.447zm-8.274 8.406c1.986 0 3.509-1.225 3.509-3.376v-1.224H7.678c-1.29 0-2.78.297-2.78 2.118 0 1.853 1.357 2.482 3.078 2.482z" transform="translate(135.158 7.07)" id="Fill-13" fill="#EF3124" fill-rule="evenodd"/><path d="M0 39.53h193.006V0H0v39.53z" transform="translate(0 .205)" id="Clip-16" fill="none"/><g clip-path="url(#mask_1)" fill="#EF3124"><path d="M0 5.295h25.483V0H0v5.295z" transform="translate(0 34.44)" id="Fill-15"/><path d="M12.41 0c2.87 0 3.708 1.712 4.434 3.878l7.514 22.414h-5.56l-1.688-5.328H7.05l-1.82 5.328H0L7.885 3.878C8.65 1.705 9.541 0 12.411 0zm-.264 5.84L8.572 16.462h7.082L12.278 5.839h-.132z" transform="translate(.53 .205)" id="Fill-17" fill-rule="evenodd"/></g></g></g></svg>
